Adwaita++/status/16/xfce4-mixer-record.svg

<svg id="svg8" height="16.063" width="16" xmlns="http://www.w3.org/2000/svg">
  <g id="g6" fill="#474747">
    <path id="path4" d="m9 5.063v-1.423l3.367-3.358c.404-.41 1.063-.346 1.412.023.332.351.375.988-.03 1.392l-3.357 3.366zm0 5.937v1.422l3.367 3.358c.404.412 1.063.347 1.412-.022a1.016 1.016 0 0 0 -.03-1.392l-3.357-3.366zm0-3.937v2h6c.75 0 .999-.501 1-1.002 0-.5-.25-.998-1-.998z"/>
    <path id="path2" d="m.5 4.5629997a.5.5 0 0 0 -.5.5v2.969a4.516 4.516 0 0 0 3 4.2500003v1.281h-2c-.565 0-1 .49-1 1v1h9v-1c0-.584-.476-1-1-1h-2v-1.281a4.516 4.516 0 0 0 3-4.2500003v-2.969a.5.5 0 0 0 -1 0c0 .069.006.128.031.188v2.78a3.521 3.521 0 0 1 -3.53 3.5320003c-1.954 0-3.501-1.5670007-3.501-3.5310003v-2.969a.5.5 0 0 0 -.5-.5zm4-4.01299997c1.385 0 2.5 1.11499997 2.5 2.49999997v5.013c0 1.3849996-1.115 2.5000003-2.5 2.5000003a2.495 2.495 0 0 1 -2.5-2.5000003v-5.013c0-1.385 1.115-2.49999997 2.5-2.49999997z" fill="#474747"/>
  </g>
</svg>

<?xml version="1.0" encoding="UTF-8" standalone="no"?>
<svg
   xmlns:dc="http://purl.org/dc/elements/1.1/"
   xmlns:cc="http://creativecommons.org/ns#"
   xmlns:rdf="http://www.w3.org/1999/02/22-rdf-syntax-ns#"
   xmlns:svg="http://www.w3.org/2000/svg"
   xmlns="http://www.w3.org/2000/svg"
   xmlns:sodipodi="http://sodipodi.sourceforge.net/DTD/sodipodi-0.dtd"
   xmlns:inkscape="http://www.inkscape.org/namespaces/inkscape"
   width="16"
   height="16.063"
   version="1.1"
   id="svg8"
   sodipodi:docname="xfce4-mixer-record.svg"
   inkscape:version="0.92.4 (5da689c313, 2019-01-14)">
  <metadata
     id="metadata14">
    <rdf:RDF>
      <cc:Work
         rdf:about="">
        <dc:format>image/svg+xml</dc:format>
        <dc:type
           rdf:resource="http://purl.org/dc/dcmitype/StillImage" />
        <dc:title></dc:title>
      </cc:Work>
    </rdf:RDF>
  </metadata>
  <defs
     id="defs12" />
  <sodipodi:namedview
     pagecolor="#ffffff"
     bordercolor="#666666"
     borderopacity="1"
     objecttolerance="10"
     gridtolerance="10"
     guidetolerance="10"
     inkscape:pageopacity="0"
     inkscape:pageshadow="2"
     inkscape:window-width="793"
     inkscape:window-height="480"
     id="namedview10"
     showgrid="false"
     inkscape:zoom="14.69215"
     inkscape:cx="8.3410232"
     inkscape:cy="8.0314999"
     inkscape:window-x="573"
     inkscape:window-y="102"
     inkscape:window-maximized="0"
     inkscape:current-layer="g6" />
  <g
     fill="#2e3436"
     id="g6">
    <path
       d="M 9,5.063 V 3.64 l 3.367,-3.358 c 0.404,-0.41 1.063,-0.346 1.412,0.023 0.332,0.351 0.375,0.988 -0.03,1.392 L 10.392,5.063 Z M 9,11 v 1.422 l 3.367,3.358 c 0.404,0.412 1.063,0.347 1.412,-0.022 a 1.016,1.016 0 0 0 -0.03,-1.392 L 10.392,11 Z M 9,7.063 v 2 h 6 c 0.75,0 0.999,-0.501 1,-1.002 0,-0.5 -0.25,-0.998 -1,-0.998 z"
       id="path4"
       inkscape:connector-curvature="0" />
    <path
       inkscape:connector-curvature="0"
       d="m 0.5,4.5629997 a 0.5,0.5 0 0 0 -0.5,0.5 v 2.969 A 4.516,4.516 0 0 0 3,12.282 v 1.281 H 1 c -0.565,0 -1,0.49 -1,1 v 1 h 9 v -1 c 0,-0.584 -0.476,-1 -1,-1 H 6 V 12.282 A 4.516,4.516 0 0 0 9,8.0319997 v -2.969 a 0.5,0.5 0 0 0 -1,0 c 0,0.069 0.006,0.128 0.031,0.188 v 2.78 A 3.521,3.521 0 0 1 4.501,11.563 C 2.547,11.563 1,9.9959993 1,8.0319997 v -2.969 a 0.5,0.5 0 0 0 -0.5,-0.5 z m 4,-4.01299997 c 1.385,0 2.5,1.11499997 2.5,2.49999997 v 5.013 C 7,9.4479993 5.885,10.563 4.5,10.563 A 2.495,2.495 0 0 1 2,8.0629997 v -5.013 c 0,-1.385 1.115,-2.49999997 2.5,-2.49999997 z"
       style="color:#bebebe;font-weight:400;line-height:normal;font-family:Sans;-inkscape-font-specification:Sans;text-indent:0;text-align:start;text-decoration:none;text-decoration-line:none;text-transform:none;overflow:visible;fill:#2e3436;marker:none;fill-opacity:1"
       font-weight="400"
       overflow="visible"
       id="path2" />
  </g>
</svg>
